lib/flags/m/IN.svg

<svg xmlns="http://www.w3.org/2000/svg" fill="none" viewBox="0 0 20 15"><mask id="IN_svg__a" width="20" height="15" x="0" y="0" mask-type="alpha" maskUnits="userSpaceOnUse"><path fill="#fff" d="M0 0H20V15H0z"/></mask><g mask="url(#IN_svg__a)"><path fill="#F7FCFF" fill-rule="evenodd" d="M0 0V15H20V0H0Z" clip-rule="evenodd"/><mask id="IN_svg__b" width="20" height="15" x="0" y="0" mask-type="alpha" maskUnits="userSpaceOnUse"><path fill="#fff" fill-rule="evenodd" d="M0 0V15H20V0H0Z" clip-rule="evenodd"/></mask><g fill-rule="evenodd" clip-rule="evenodd" mask="url(#IN_svg__b)"><path fill="#FF8C1A" d="M0 0V5H20V0H0Z"/><path fill="#5EAA22" d="M0 10V15H20V10H0Z"/><path fill="#3D58DB" d="M7.5 7.5C7.5 8.88071 8.61929 10 10 10C11.3807 10 12.5 8.88071 12.5 7.5C12.5 6.11929 11.3807 5 10 5C8.61929 5 7.5 6.11929 7.5 7.5ZM11.875 7.5C11.875 8.53553 11.0355 9.375 10 9.375C8.96447 9.375 8.125 8.53553 8.125 7.5C8.125 6.46447 8.96447 5.625 10 5.625C11.0355 5.625 11.875 6.46447 11.875 7.5Z"/><path fill="#3D58DB" d="M9.99653 8.03794L9.47531 9.95903L9.78054 7.99203L8.52301 9.53503L9.60189 7.86224L7.82549 8.76036L9.49148 7.671L7.50336 7.76895L9.4684 7.4514L7.61232 6.73223L9.53664 7.24138L8.13354 5.82946L9.68439 7.07729L8.97688 5.21673L9.88612 6.98747L9.99653 5L10.1069 6.98747L11.0162 5.21673L10.3087 7.07729L11.8595 5.82946L10.4564 7.24138L12.3807 6.73223L10.5247 7.4514L12.4897 7.76895L10.5016 7.671L12.1676 8.76036L10.3912 7.86224L11.47 9.53503L10.2125 7.99203L10.5177 9.95903L9.99653 8.03794Z"/></g></g></svg>

<svg xmlns="http://www.w3.org/2000/svg" fill="none" viewBox="0 0 20 15"><mask id="IN_svg__a" width="20" height="15" x="0" y="0" maskUnits="userSpaceOnUse"><path fill="#fff" d="M0 0h20v15H0z"/></mask><g mask="url(#IN_svg__a)"><path fill="#F7FCFF" fill-rule="evenodd" d="M0 0v15h20V0H0z" clip-rule="evenodd"/><mask id="IN_svg__b" width="20" height="15" x="0" y="0" maskUnits="userSpaceOnUse"><path fill="#fff" fill-rule="evenodd" d="M0 0v15h20V0H0z" clip-rule="evenodd"/></mask><g fill-rule="evenodd" clip-rule="evenodd" mask="url(#IN_svg__b)"><path fill="#FF8C1A" d="M0 0v5h20V0H0z"/><path fill="#5EAA22" d="M0 10v5h20v-5H0z"/><path fill="#3D58DB" d="M7.5 7.5a2.5 2.5 0 105 0 2.5 2.5 0 00-5 0zm4.375 0a1.875 1.875 0 11-3.75 0 1.875 1.875 0 013.75 0z"/><path fill="#3D58DB" d="M9.997 8.038l-.522 1.921.306-1.967-1.258 1.543 1.079-1.673-1.776.898 1.666-1.089-1.989.098 1.965-.318-1.856-.719 1.925.51-1.403-1.413 1.55 1.248-.707-1.86.91 1.77L9.996 5l.11 1.987.91-1.77-.708 1.86 1.55-1.248-1.402 1.412 1.924-.509-1.856.72 1.965.317-1.988-.098 1.666 1.09-1.777-.899 1.08 1.673-1.258-1.543.305 1.967-.521-1.921z"/></g></g></svg>
